!!!COM: Dunstable, John
!!!OTL: Sancta Maria, no est tibi similis
!!!ONM: No. 48
!!!YOR: from: "Musica Britannica" Vol. 8, edited by Manfred F. Bukofzer,
!!!YOR: 2nd rev. ed. (prepared by Margaret Bent, Ian Bent & Brian Trowell), pp.121-122
!!!YOO: Royal Musical Association (London)
!!!YOY: 1970
**kern	**kern	**kern
*ICvox	*ICvox	*ICvox
! tenor	! contratenor	! discantus
*M3/4	*M3/4	*M3/4
=1	=1	=1
*>A1	*>A1	*>A1
!! Section 'A1'; (O) mensuration.
[2.c	[2.C	2.c
=2	=2	=2
2.c]	2.C]	4.e
.	.	8f
.	.	4g
=3	=3	=3
2.c	4F	4a
.	4r	4g
.	4A	8e
.	.	8d
=4	=4	=4
4d	4B	4d
2c	4A	4.a
.	4c	.
.	.	8g
=5	=5	=5
4B	4G	[4g
2A	2c	12g]
.	.	12f#x
.	.	12g
.	.	6f#x
.	.	12e
=6	=6	=6
2.G	4B	2g
.	4G	.
.	4E	4r
=7	=7	=7
2.c	2.C	2.e
=8	=8	=8
[2.A	2r	4.f
.	.	8e
.	4F	8d
.	.	8c
=9	=9	=9
4A]	4F	4c
4G	4G	8B
.	.	4G
4E	8B	.
.	[8G	8B
=10	=10	=10
8C	8G]	8c
4F	4A	8.d
.	.	16c
8E	4G	4c
4D	.	.
.	8F	8B
=11	=11	=11
2C	2G	4c
.	.	4r
4r	4F	4A
=12	=12	=12
*>A2	*>A2	*>A2
!! Section 'A2'; (O) mensuration.
2c	[2.F	2A
[4A	.	4c
=13	=13	=13
4A]	4F]	4c
2F	2A	4.d
.	.	8c
=14	=14	=14
[2.C	[2.c	4.e
.	.	8f
.	.	8g
.	.	8a
=15	=15	=15
2.C]	4c]	4g
.	4G	2e
.	4r	.
=16	=16	=16
*>B	*>B	*>B
!! Section 'B'; (O) mensuration.
2F	4.A	2.r
.	8c	.
4G	4B	.
=17	=17	=17
4A	4c	2.r
4G	8d	.
.	4e	.
4E	.	.
.	8c	.
=18	=18	=18
4F	8B	2.r
.	4d	.
2D	.	.
.	4c	.
.	8B	.
=19	=19	=19
2.C	[2.c	2.r
=20	=20	=20
*>C	*>C	*>C
!! Section 'C'; (O) mensuration.
2.r	2c]	2e
.	4A	4f
=21	=21	=21
2.r	4G	4g
.	8A	8f
.	4B	8d
.	.	8g
.	8c	8a
=22	=22	=22
2.r	8d	8b
.	4c	8.a
.	.	16g
.	8B	4g
.	4A	.
.	.	8f#x
=23	=23	=23
2.r	2.G	2.g
=24	=24	=24
*>D	*>D	*>D
!! Section 'D'; (O) mensuration.
2.F	2.r	2.a
=25	=25	=25
2.A	2.r	4r
.	.	4f
.	.	4f
=26	=26	=26
2.c	2r	2a
.	4E	4g
=27	=27	=27
2d	4D	4f
.	4G	4.e
4c	4A	.
.	.	8d
=28	=28	=28
2.d	4B-x	4d
.	4r	4a
.	4d	8b-x
.	.	8a
=29	=29	=29
4c	2e	4.a
2B-x	.	.
.	.	8g
.	4d	8g
.	.	8f
=30	=30	=30
2A	2e	4a
.	.	4r
4r	4d	4f
=31	=31	=31
4F	4A	4a
4E	2G	16g
.	.	16f
.	.	4e
4C	.	.
.	.	8c
=32	=32	=32
8D	2r	8f
4E	.	8e
.	.	4c
8F	.	.
4G	4B	8e
.	.	8d
=33	=33	=33
4F	2A	8d
.	.	16c
.	.	16d
2E	.	8e
.	.	4c#x
.	4G	.
.	.	8B
=34	=34	=34
2.D	2A	4d
.	.	4r
.	4d	4f
=35	=35	=35
*>E	*>E	*>E
!! Section 'E'; (O) mensuration.
2.r	2.d	2f
.	.	4a
=36	=36	=36
2.r	2.c	4a
.	.	4g
.	.	4e
=37	=37	=37
2.r	2.B-x	8f
.	.	4g
.	.	8f
.	.	4d
=38	=38	=38
2.r	2c	8.e
.	.	16c
.	.	8e
.	.	8f
.	4B-x	4g
=39	=39	=39
2.r	4.c	4r
.	.	8a
.	8B-x	16g
.	.	16a
.	4G	4b-
=40	=40	=40
2.r	8c	8a
.	4B-	8g
.	.	8f
.	8A	4f
.	4G	.
.	.	8e
=41	=41	=41
2.r	2F	4f
.	.	4r
.	4r	4a
=42	=42	=42
2.r	4c	4a
.	8A	8f
.	8B-x	8g
.	4c	4e
=43	=43	=43
2.r	4d	8d
.	.	8.f
.	8c	.
.	.	16e
.	4A	8c
.	.	8e
.	8F	8f
=44	=44	=44
2.r	8B-x	8g
.	4c	8.a
.	.	16g
.	8G	4g
.	4A	.
.	.	8f#x
=45	=45	=45
2r	2G	2g
4G	4B	4r
=46	=46	=46
*>F	*>F	*>F
!! Section 'F'; (O) mensuration.
[2.C	2c	4.e
.	.	8e
.	4G	4e
=47	=47	=47
4C]	2.A	4e
2F	.	4c
.	.	8d
.	.	8e
=48	=48	=48
4A	4c	4f
4G	4B	8e
.	.	4d
4F	4A	.
.	.	8c
=49	=49	=49
4E	2G	2c
2D	.	.
.	4F	4B
=50	=50	=50
2.C	2.G	4c
.	.	4r
.	.	4e
=51	=51	=51
2.c	2C	4e
.	.	4g
.	4F	4a
=52	=52	=52
2.d	2D	2f
.	4G	4d
=53	=53	=53
2A	4.c	4f
.	.	8e
.	8A	8c
4B	4G	4d
=54	=54	=54
4c	4A	8c
.	.	8e
4B	2r	8f
.	.	4g
4c	.	.
.	.	8e
=55	=55	=55
4d	4B	8d
.	.	8g
8c	8A	8a
8B	8B	4g
4A	4c	.
.	.	8f#x
=56	=56	=56
2G	4d	4g
.	4B	4r
4r	4c	4e
=57	=57	=57
*>G	*>G	*>G
!! Section 'G'; (O) mensuration.
4D	4.d	4a
8G	.	8g
8A	8c	8f
8B	8B	8d
[8A	8c	8e
=58	=58	=58
8A]	8A	8f
8G	8B	8.g
4B	8r	.
.	.	16f
.	8B	16e
.	.	16d
8c	8A	8c
8B	8G	8d
=59	=59	=59
8A	4c	8f
4G	.	8.e
.	8B	.
.	.	16d
8F	4A	4d
4E	.	.
.	8G	8c#x
=60	=60	=60
[2.D	[2.A	[2.d
=61	=61	=61
2.D]	2.A]	2.d]
==	==	==
*-	*-	*-
!!!ENC: Mark Laxton
!!!EDD: Mark Laxton
!!!YEC: Mark Laxton, 1987
!!!EMD: Reference records added by D. Huron, 2001
!!!EEV: 1.1
